X:1
T:Title
%%score { ( 1 4 ) | ( 2 3 ) }
L:1/8
M:6/8
K:Db
V:1 treble nm="Grand Piano"
V:4 treble 
V:2 bass 
V:3 bass 
V:1
 z3 z2[Q:1/4=100] [DF]/[EG]/ | [FA]2 [FA] [FA]GF | [GB]2 [GB] [FA]2 [DF] | %3
 [EG][DF][EG] [FA]2 [EG] | [DF]3- [DF]2 [DF]/[EG]/ | [FA]2 [FA] [FA]GF | [GB]2 [GB] [FA]2 [FA] | %7
 A2 =G c2 B | [CA]3- [CA]2 [CE]/[DF]/ | [EG]2 [EG] [EG][FA][EG] | [DF]2 [DF] [CE]2 [CE]/[DF]/ | %11
 [EG]2 [EG] [EG][FA][EG] | [DF]3- [DF]2 [DF]/[EG]/ | [FA]2 [FA] [FA]GF | %14
[M:7/8] [GB]2 [GB] [FA]3 A |[M:3/4] B2 B c2 c |[M:5/8] [Fd]-[Fd]- [Fd]3 |[M:1/8] [FA] | %18
[M:3/4] f4 z2 | e4 z2 | .[CEGe]2 [CEGe][CEGe] z [CEGe] |[M:5/8] d3 A2 |[M:1/8] [A,DFA] | %23
[M:3/4] .[Af]2 [Af][Af] z [DAd] |[M:7/8] [DAd] z [Af] [Bg]3 [Bg] |[M:3/4] f2 e d2 [EGc] | %26
[M:5/8] d-d- d3 |] %27
V:2
 z3 z2 [D,A,] | [D,D]2 [D,D] z E[D,D] | [D,D]2 [D,D] [D,D]2 [D,A,] | %3
 [A,,A,]2 [A,,A,] [A,,A,]2 [A,,A,] | [D,A,]3- [D,A,]2 [D,A,] | [D,D]2 [D,D] z E[D,D] | %6
 [D,D]2 [D,D] [D,D]2 [D,D] | [E,CE]2 [E,B,E] [E,A,E]2 [E,=G,D] | [A,,A,]3- [A,,A,]2 [A,,A,] | %9
 [A,,A,]2 [A,,A,] [A,,A,]2 [A,,A,] | [D,A,]2 [D,A,] [A,,A,]2 [A,,A,] | %11
 [A,,A,]2 [A,,A,] [A,,A,]2 [A,,A,] | [D,A,]3- [D,A,]2 [D,A,] | [D,D]2 [D,D] z E[D,D] | %14
[M:7/8] [D,D]2 [D,D] [D,D]3 [F,D] |[M:3/4][K:treble] [G,DG]2 [G,DG] [A,G]2 [A,G] | %16
[M:5/8][K:bass] [D,A,]-[D,A,]- [D,A,]3 |[M:1/8] [D,A,D] | %18
[M:3/4] .[D,A,D]2 [D,A,D][D,A,D] z [D,A,D] | .A,,2 A,,A,, z A,, | %20
 .A,,2 A,,A,,[K:treble] f[K:bass]A,, |[M:5/8] D, z D, D, z |[M:1/8] D, | %23
[M:3/4] .[D,A,D]2 [D,A,D][D,A,D][K:treble] e[K:bass]F, | %24
[M:7/8] F,[K:treble]e[A,_CD][K:bass] [G,B,G]3 [G,B,D] | %25
[M:3/4][K:treble] .[A,DA]2 [A,CG][A,DF] z[K:bass] [B,,A,] |[M:5/8] [D,A,D] z [D,A,D] [D,A,D] z |] %27
V:3
 x6 | z3 .[D,A,]3 | x6 | x6 | x6 | z3 .[D,A,]3 | x6 | x6 | x6 | x6 | x6 | x6 | x6 | z3 .[D,A,]3 | %14
[M:7/8] x7 |[M:3/4][K:treble] x6 |[M:5/8][K:bass] x5 |[M:1/8] x |[M:3/4] x6 | x6 | %20
 x4[K:treble] x[K:bass] x |[M:5/8] x5 |[M:1/8] x |[M:3/4] x4[K:treble] x[K:bass] x | %24
[M:7/8] x[K:treble] x2[K:bass] x4 |[M:3/4][K:treble] x5[K:bass] x |[M:5/8] x5 |] %27
V:4
 x6 | x6 | x6 | x6 | x6 | x6 | x6 | x6 | x6 | x6 | x6 | x6 | x6 | x6 |[M:7/8] x7 |[M:3/4] x6 | %16
[M:5/8] x5 |[M:1/8] x |[M:3/4] .A2 AA g[Af] | .[CEG]2 [CEG][CEG] z [CEGA] | x6 | %21
[M:5/8] [DF] z [A,DF] [A,DF] z |[M:1/8] x |[M:3/4] x6 |[M:7/8] x7 |[M:3/4] x6 |[M:5/8] F z F F z |] %27

